modules/coreui-icons-free/icons/remove.svg

<!-- Generated by IcoMoon.io -->
<svg version="1.1" xmlns="http://www.w3.org/2000/svg" width="24" height="24" viewBox="0 0 24 24">
<title>remove</title>
<path d="M10.655 17.030l3.97-3.97 3.97 3.97 1.061-1.061-3.97-3.97 3.97-3.97-1.061-1.061-3.97 3.97-3.97-3.97-1.061 1.061 3.97 3.97-3.97 3.97 1.061 1.061z"></path>
<path d="M22.125 3h-13.001c-0.321 0.001-0.611 0.135-0.816 0.351l-0 0-7.557 7.975v1.348l7.557 7.975c0.206 0.216 0.495 0.351 0.816 0.351h13.001c0.621-0.001 1.124-0.504 1.125-1.125v-15.75c-0.001-0.621-0.504-1.124-1.125-1.125h-0zM21.75 19.5h-12.465l-7.035-7.424v-0.152l7.035-7.424h12.465z"></path>
</svg>

<svg xmlns="http://www.w3.org/2000/svg" width="24" height="24" viewBox="0 0 24 24"><path d="M10.655 17.03l3.97-3.97 3.97 3.97 1.061-1.061-3.97-3.97 3.97-3.97-1.061-1.061-3.97 3.97-3.97-3.97-1.061 1.061 3.97 3.97-3.97 3.97 1.061 1.061z"/><path d="M22.125 3H9.124a1.126 1.126 0 00-.816.351L.751 11.326v1.348l7.557 7.975c.206.216.495.351.816.351h13.001a1.127 1.127 0 001.125-1.125V4.125A1.127 1.127 0 0022.125 3zm-.375 16.5H9.285L2.25 12.076v-.152L9.285 4.5H21.75z"/></svg>
